X:2884
T:Charlie Lennon's Mazurka
M:3/4
L:1/8
Q:150
R:mazurka
D:Vincent Campbell - The Brass Fiddle
K:G
D>G|B3 A G>B|d4  A>B|c3 e d>c|(3Bcd g2 D>G|!
B3 A G>B|d4  A>B|c3 A F>A|G4:|!
g>f|e2 c>e c>e|d2 d2  A>B|c3 A (3FGA|B4 g>f|!
e2 c>e c>e|d2 d2 A>B|c3 A F>A|G4:|!


